X:1
T:Tres De Morales
T:Tres De Morales
T:Cristobol de Morales
C:Morales
L:1/8
M:4/4
K:C
V:1 tab stafflines=6 strings=G2,C3,F3,A3,D4,G4 nostems nm="Lute" snm="Lt."
V:1
 !3!_B,8 | !3!_B,8 | !3!C8 | !3!D8 | [!3!D!2!F]8 | [!4!_B,!3!D!2!F]4 !3!D4 | [!3!_B,!2!D!1!G]8 | %7
 [!3!C!1!A]4 !2!E4 | [!3!D!2!F!1!A]4 !1!A4 | [!3!D!2!F!1!A]4 !3!C4 | [!3!D!2!F]4 !1!A2 !2!E2 | %11
 [!2!D!1!A]2 !3!C2 [!3!D!2!F]4 | [!2!D!1!A]4 [!3!C!2!E]4 | !1!G4 [!3!_B,!2!D]2 [!4!A,!3!C]2 | %14
 [!4!G,!2!D!1!_B]4 !2!E2 !1!A2 | [!4!G,!1!G]2 !2!D2 [!3!D!2!F]4 | [!3!A,!2!E]2 !2!D2 !3!^C4 | %17
 [!5!D,!2!D]8 | [!5!D,!2!D]4 !1!A4 | !1!G4 [!3!A,!2!F]4 | [!4!G,!2!D!1!_B]4 [!4!F,!1!A]2 !1!G2 | %21
 [!4!_B,!3!D!2!F]4 !1!_B2 !3!A,2 | [!4!G,!2!D]4 [!4!F,!1!A]4 | %23
 !3!C2 [!5!E,!1!G]2 [!5!C,!2!E]2 !2!F2 | [!5!_E,!3!_B,!1!G]2 !1!A2 !1!_B2 !5!D,2 | %25
 [!6!_B,,!2!D]2 !1!A2 !2!F2 !1!G2 | [!5!C,!3!C!1!A]4 !1!G2 !3!_B,2 | [!5!D,!3!A,]2 !1!G2 !2!^F4 | %28
 [!4!G,!1!G]4 [!2!D!1!_B]4 | [!2!D!1!A]4 [!3!D!2!F]4 | [!3!C!1!G]4 !3!_B,4 | %31
 [!3!D!2!F]2 !3!A,2 [!4!G,!2!D!1!_B]4 | !2!D4 [!4!^F,!1!A]4 | [!4!G,!2!D]2 !1!G2 !1!G4 | %34
 [!4!A,!3!C]2 !1!G2 !2!^F4 | [!4!G,!3!_B,!1!G]4 !2!D4 | [!3!D!2!F]4 !5!D,2 !1!G2 | %37
 [!4!F,!2!D!1!A]4 [!4!G,!1!B]4 | [!4!A,!3!C!1!c]6 !1!_B2 | %39
 [!4!F,!3!C!1!A]2 !1!G2 [!4!G,!3!_B,!1!_B]4 | !3!_B,2 [!4!F,!1!A]2 [!5!E,!1!G]2 !5!D,2 | %41
 [!5!C,!3!A,]2 !1!G2 [!5!D,!2!^F]4 | [!4!G,!1!G]4 !4!G,4 | [!4!G,!3!_B,]4 !2!D2 !3!C2 | %44
 [!3!D!2!F]4 [!3!C!1!G]4 | !1!A4 [!3!_B,!2!D!1!_B]2 !3!A,2 | %46
 [!4!G,!2!D]2 !1!A2 [!4!_B,!3!D!2!F]2 !1!G2 | [!4!F,!3!C!1!A]4 [!4!G,!3!_B,!2!D]2 !2!E2 | %48
 [!5!D,!3!D!2!F]2 !1!G2 !1!A2 !3!C2 | [!5!D,!3!_B,]2 !1!G2 [!3!A,!1!G]2 !4!G,2 | %50
 [!5!D,!3!A,]2 !2!^F !2!E !1!G2 !2!F2 | [!6!G,,!4!G,!1!G]8 |] %52

